X: 1
T: Corn Rigs
M: C|
Z: Transcribed to abc by Mary Lou Knack
R: reel
C: R-21
K: D
(3ABc| "D"dcde f2ed| "A"cBcd ecA2| "D"dcde fgef| d2ab a2 (3ABc|
       "D"dcde f2ed| "A"cBcd ecA2| "G"BcdB "A"edcB| "D"A2de d2 :|
|:\
(3ABc| "D"d2a2 fga2| "A"cBcd ecA2| "D"d2a2 fgef| d2ab a2 (3ABc|
       "D"d2a2 "G"bagf| "Em"gfed "A"cdeA| "G"BcdB "A"edcB| "D"A2de d2 :|
%%text 9/1/98
